X: 10009
T: Devyn Jansen's
R: reel
M: 4/4
K: Gmajor
|:f2|g2dcB2A2|G2A2B2f2|g2dcB2A2|G3AG2f2|
g2dcB2A2|G2A2B4|GAB2A2B2|G4G2f2|
g2dcB2A2|G2A2B2f2|g2dcB2A2|G3AG2f2|
g2dcB2A2|G2A2B4|GAB2A2B2|G4G2B2|
c3cc2d2|B2A2G2B2|d3dd2c2|B6B2|
c3cc2d2|B2A2G2f2|g2dcB2A2|G3AG2B2|
c3cc2d2|B2A2G2B2|d3dd2c2|B6B2|
c3cc2d2|B2A2G2f2|g2dcB2A2|G3AG4:|

